X: 1
T: Miss/Mrs. MacLeod's Reel
O: Trad
Z: John Chambers <jc@trillian.mit.edu>
N: Sometimes called "Uncle Joe" in America.
N: Skye p.8
N: Hunter 249
N: BSFC I-61 and III-45
N: Winston  Scotty  Fitzgerald
D: Celtic 40 Fiddlers 32 tape A6
R: reel
M: C|
L: 1/8
K: A
|: cB \
| "A"A2a2 "D"fefa | "A"~c2cB c2cB \
| "A"A2a2 "D"fefa | "Bm"ecBA "E7"B2cB |
| "A"A2a2 "D"fefa | "A"~c2cB c2e2 \
| "D"~f2fe "Bm"f2(3efg | "A"a2ec "E7"B2 :|
|: cB \
| "A"~A2cA eAcf | "A"eccB c3B \
| "A"~A2cA eAca | "Bm"ecBA "E7"B4 |
| "A"~A2cA eAcf | "A"eccB c3e \
| "D"~f2fe "Bm"f2(3efg | "A"a2ec "E7"B2 :|
